MonoIcons/scalable/status/mail-replied-symbolic-rtl.svg

<?xml version="1.0" encoding="UTF-8"?>
<svg height="16px" viewBox="0 0 16 16" width="16px" xmlns="http://www.w3.org/2000/svg">
    <g fill="#2e3436">
        <path d="m 8 0.984375 c 0.101562 0 0.199219 0.003906 0.296875 0.015625 h -0.597656 c 0.101562 -0.011719 0.199219 -0.015625 0.300781 -0.015625 z m -2.308594 2.109375 c -0.414062 0.082031 -0.792968 0.25 -1.089844 0.53125 c 0.25 -0.257812 0.605469 -0.445312 1.089844 -0.53125 z m -1.304687 0.757812 c -0.191407 0.28125 -0.3125 0.589844 -0.363281 0.867188 c 0.03125 -0.183594 0.089843 -0.445312 0.226562 -0.71875 c 0.023438 -0.046875 0.105469 -0.097656 0.136719 -0.148438 z m -2.289063 0.300782 c -0.109375 0.507812 -0.097656 0.867187 -0.097656 0.867187 v 7.980469 c 0 0.5625 0.4375 1 1 1 h 10 c 0.5625 0 1 -0.4375 1 -1 v -5.398438 l -4.890625 3.257813 c -0.671875 0.449219 -1.546875 0.449219 -2.21875 0 l -1.792969 -1.191406 c 0.28125 -0.191407 0.515625 -0.453125 0.671875 -0.753907 l 1.675781 1.117188 c 0.335938 0.222656 0.773438 0.222656 1.109376 0 l 5.167968 -3.449219 c 0.039063 -0.019531 0.082032 -0.039062 0.125 -0.046875 c -0.058594 -0.082031 -0.132812 -0.152344 -0.222656 -0.207031 l -0.078125 -0.046875 l 1.433594 -1.433594 c 0.640625 0.523438 1.019531 1.3125 1.019531 2.152344 v 6 c 0 1.644531 -1.355469 3 -3 3 h -10 c -1.644531 0 -3 -1.355469 -3 -3 v -6 c 0 -0.96875 0.503906 -1.867188 1.328125 -2.375 z m 0 0" fill-opacity="0.501961"/>
        <path d="m 3 8 c 0 0.550781 0.449219 1 1 1 s 1 -0.449219 1 -1 v -3 c 0 -0.5 0.199219 -0.894531 1 -1 h 5 v 2 h 1 v -0.003906 c 0.265625 0 0.519531 -0.105469 0.707031 -0.289063 l 2 -2 c 0.390625 -0.390625 0.390625 -1.023437 0 -1.414062 l -2 -2 c -0.1875 -0.183594 -0.441406 -0.28906275 -0.707031 -0.2851565 v -0.0078125 h -1 v 2 h -5 c -1.332031 0 -2.277344 0.8125 -2.644531 1.550781 c -0.371094 0.742188 -0.355469 1.449219 -0.355469 1.449219 z m 0 0"/>
    </g>
</svg>

<svg width="16" height="16" viewBox="0 0 16 16" fill="none" xmlns="http://www.w3.org/2000/svg">
<g clip-path="url(#clip0_231_1002)">
<path d="M8 0.984375C8.10156 0.984375 8.19922 0.988281 8.29688 1H7.69922C7.80078 0.988281 7.89844 0.984375 8 0.984375ZM5.69141 3.09375C5.27734 3.17578 4.89844 3.34375 4.60156 3.625C4.85156 3.36719 5.20703 3.17969 5.69141 3.09375ZM4.38672 3.85156C4.19531 4.13281 4.07422 4.44141 4.02344 4.71875C4.05469 4.53516 4.11328 4.27344 4.25 4C4.27344 3.95312 4.35547 3.90234 4.38672 3.85156V3.85156ZM2.09766 4.15234C1.98828 4.66016 2 5.01953 2 5.01953V13C2 13.5625 2.4375 14 3 14H13C13.5625 14 14 13.5625 14 13V7.60156L9.10938 10.8594C8.4375 11.3086 7.5625 11.3086 6.89062 10.8594L5.09766 9.66797C5.37891 9.47656 5.61328 9.21484 5.76953 8.91406L7.44531 10.0312C7.78125 10.2539 8.21875 10.2539 8.55469 10.0312L13.7227 6.58203C13.7617 6.5625 13.8047 6.54297 13.8477 6.53516C13.7891 6.45312 13.7148 6.38281 13.625 6.32812L13.5469 6.28125L14.9805 4.84766C15.6211 5.37109 16 6.16016 16 7V13C16 14.6445 14.6445 16 13 16H3C1.35547 16 0 14.6445 0 13V7C0 6.03125 0.503906 5.13281 1.32812 4.625L2.09766 4.15234Z" fill="#2E3436" fill-opacity="0.5"/>
<path d="M3.00009 8C3.00009 8.55078 3.44931 9 4.00009 9C4.55088 9 5.00009 8.55078 5.00009 8V5C5.00009 4.5 5.19931 4.10547 6.00009 4H11.0001V6H12.0001V5.99609C12.2657 5.99609 12.5196 5.89062 12.7071 5.70703L14.7071 3.70703C15.0978 3.31641 15.0978 2.68359 14.7071 2.29297L12.7071 0.292969C12.5196 0.109375 12.2657 0.00390625 12.0001 0.0078125V0H11.0001V2H6.00009C4.66806 2 3.72275 2.8125 3.35556 3.55078C2.98447 4.29297 3.00009 5 3.00009 5V8Z" fill="#2E3436"/>
</g>
<defs>
<clipPath id="clip0_231_1002">
<rect width="16" height="16" fill="white"/>
</clipPath>
</defs>
</svg>
